public/images/icons/marriage-related.svg

<svg width="60" height="60" viewBox="0 0 60 60" fill="none" xmlns="http://www.w3.org/2000/svg">
<g clip-path="url(#clip0_1134_1237)">
<mask id="mask0_1134_1237" style="mask-type:luminance" maskUnits="userSpaceOnUse" x="0" y="0" width="60" height="60">
<path d="M0 0.000175476H59.9998V60H0V0.000175476Z" fill="white"/>
</mask>
<g mask="url(#mask0_1134_1237)">
<path d="M29.9928 18.6966C29.9928 18.6966 30.4603 34.9214 10.7034 41.289L7.83203 41.4839V14.1174H30.0002L29.9928 18.6966Z" fill="#84716B"/>
<path d="M30.0074 18.6966C30.0074 18.6966 29.8525 35.1163 49.6093 41.4839H52.1683V14.1174H30L30.0074 18.6966Z" fill="#84716B"/>
<path d="M52.1351 41.4839C52.1351 41.4839 33.9512 38.203 33.9512 16.9921H26.049C26.049 38.203 7.86523 41.4839 7.86523 41.4839C21.0373 41.078 27.1692 32.9886 30.0001 26.2164C32.831 32.9886 38.963 41.078 52.1351 41.4839Z" fill="#A98F87"/>
<path d="M33.1776 6.6377C37.7993 6.6377 33.8929 -0.120488 31.5821 3.87723C33.8929 -0.120488 26.0799 -0.120488 28.3907 3.87723C26.0799 -0.120488 22.1734 6.6377 26.7951 6.6377H33.1776Z" fill="#84716B"/>
<path d="M43.869 6.6377C48.4908 6.6377 44.5843 -0.120488 42.2734 3.87723C44.5843 -0.120488 36.7712 -0.120488 39.0821 3.87723C36.7712 -0.120488 32.8648 6.6377 37.4866 6.6377H43.869Z" fill="#A98F87"/>
<path d="M54.5604 6.6377C59.1822 6.6377 55.2757 -0.120488 52.9649 3.87723C55.2757 -0.120488 47.4627 -0.120488 49.7735 3.87723C47.4627 -0.120488 43.5562 6.6377 48.1779 6.6377H54.5604Z" fill="#84716B"/>
<path d="M22.4853 6.6377C27.107 6.6377 23.2006 -0.120488 20.8897 3.87723C23.2006 -0.120488 15.3875 -0.120488 17.6984 3.87723C15.3875 -0.120488 11.4809 6.6377 16.1028 6.6377H22.4853Z" fill="#A98F87"/>
<path d="M11.8193 6.6377C16.441 6.6377 12.5346 -0.120488 10.2237 3.87723C12.5346 -0.120488 4.72148 -0.120488 7.03241 3.87723C4.72148 -0.120488 0.814933 6.6377 5.43679 6.6377H11.8193Z" fill="#84716B"/>
<path d="M9.2041 33.2134H13.0507C14.1884 33.2134 15.1107 32.2922 15.1107 31.1557C15.1107 28.4478 17.3083 26.2528 20.0192 26.2528C20.0192 23.5235 22.2341 21.3111 24.9665 21.3111C27.0483 21.2397 28.6288 20.1689 30 18.6966C31.4664 20.1613 32.9074 21.2086 35.0337 21.3111C37.766 21.3111 39.981 23.5235 39.981 26.2528C42.6919 26.2528 44.8895 28.4478 44.8895 31.1557C44.8895 32.2922 45.8117 33.2134 46.9494 33.2134H50.7959V14.1174H9.2041V33.2134Z" fill="white"/>
<path d="M14.0595 59.1211H1.78809V55.9181C1.78809 55.1415 2.41773 54.5119 3.19433 54.5119H12.6532C13.4298 54.5119 14.0595 55.1415 14.0595 55.9181V59.1211Z" fill="#FF7265"/>
<path d="M58.2118 59.1211H45.9404V55.9181C45.9404 55.1415 46.5701 54.5119 47.3467 54.5119H56.8056C57.5823 54.5119 58.2118 55.1415 58.2118 55.9181V59.1211Z" fill="#FF7265"/>
<path d="M56.8057 54.5119H53.29C54.0668 54.5119 54.6963 55.1415 54.6963 55.9181V59.1211H58.2119V55.9181C58.2119 55.1415 57.5824 54.5119 56.8057 54.5119Z" fill="#FF7265"/>
<path d="M10.9562 33.2134H4.8916V14.1174H10.9562V33.2134Z" fill="#BEE7F4"/>
<path d="M7.44043 33.2134H10.956V14.1174H7.44043V33.2134Z" fill="#A6E7F0"/>
<path d="M9.8869 54.5117H5.95996V40.1275H9.8869V54.5117Z" fill="#BEE7F4"/>
<path d="M7.53809 54.5117H9.88183V40.1275H7.53809V54.5117Z" fill="#A6E7F0"/>
<path d="M9.98428 40.1277H5.86246L4.71191 38.09V33.2135H11.1348V38.09L9.98428 40.1277Z" fill="#BEE7F4"/>
<path d="M7.61426 33.2135V40.1277H9.97933L11.1299 38.09V33.2135H7.61426Z" fill="#A6E7F0"/>
<path d="M9.92319 40.1276H5.92523C5.17535 40.1276 4.56738 40.7348 4.56738 41.4839C4.56738 42.2328 5.17535 42.8401 5.92523 42.8401H9.92319C10.6731 42.8401 11.2809 42.2328 11.2809 41.4839C11.2809 40.7348 10.6731 40.1276 9.92319 40.1276Z" fill="#FF7265"/>
<path d="M11.2402 33.2135H4.60773C3.85785 33.2135 3.25 33.8208 3.25 34.5698C3.25 35.3188 3.85785 35.926 4.60773 35.926H11.2402C11.9901 35.926 12.598 35.3188 12.598 34.5698C12.598 33.8208 11.9901 33.2135 11.2402 33.2135Z" fill="#FF7265"/>
<path d="M11.2402 51.7994H4.60773C3.85785 51.7994 3.25 52.4067 3.25 53.1558V54.512H12.598V53.1558C12.598 52.4067 11.9901 51.7994 11.2402 51.7994Z" fill="#FF7265"/>
<path d="M55.1086 33.2134H49.0439V14.1174H55.1086V33.2134Z" fill="#BEE7F4"/>
<path d="M51.5938 33.2134H55.1094V14.1174H51.5938V33.2134Z" fill="#A6E7F0"/>
<path d="M54.0402 54.5117H50.1133V40.1275H54.0402V54.5117Z" fill="#BEE7F4"/>
<path d="M51.6963 54.5117H54.04V40.1275H51.6963V54.5117Z" fill="#A6E7F0"/>
<path d="M54.1375 40.1277H50.0157L48.8652 38.09V33.2135H55.288V38.09L54.1375 40.1277Z" fill="#BEE7F4"/>
<path d="M51.7725 33.2135V40.1277H54.1375L55.2881 38.09V33.2135H51.7725Z" fill="#A6E7F0"/>
<path d="M54.0754 40.1276H50.0776C49.3276 40.1276 48.7197 40.7348 48.7197 41.4839C48.7197 42.2328 49.3276 42.8401 50.0776 42.8401H54.0754C54.8253 42.8401 55.4333 42.2328 55.4333 41.4839C55.4333 40.7348 54.8253 40.1276 54.0754 40.1276Z" fill="#FF7265"/>
<path d="M54.0752 40.1276H51.7314C52.4813 40.1276 53.0893 40.7348 53.0893 41.4839C53.0893 42.2328 52.4813 42.8401 51.7314 42.8401H54.0752C54.8251 42.8401 55.433 42.2328 55.433 41.4839C55.433 40.7348 54.8251 40.1276 54.0752 40.1276Z" fill="#FF7265"/>
<path d="M9.92284 40.1276H7.5791C8.32898 40.1276 8.93683 40.7348 8.93683 41.4839C8.93683 42.2328 8.32898 42.8401 7.5791 42.8401H9.92284C10.6727 42.8401 11.2806 42.2328 11.2806 41.4839C11.2806 40.7348 10.6727 40.1276 9.92284 40.1276Z" fill="#FF7265"/>
<path d="M55.3925 33.2135H48.7601C48.0103 33.2135 47.4023 33.8208 47.4023 34.5698C47.4023 35.3188 48.0103 35.926 48.7601 35.926H55.3925C56.1424 35.926 56.7504 35.3188 56.7504 34.5698C56.7504 33.8208 56.1424 33.2135 55.3925 33.2135Z" fill="#FF7265"/>
<path d="M55.3926 33.2135H51.877C52.6268 33.2135 53.2348 33.8208 53.2348 34.5698C53.2348 35.3188 52.6268 35.926 51.877 35.926H55.3926C56.1424 35.926 56.7504 35.3188 56.7504 34.5698C56.7504 33.8208 56.1424 33.2135 55.3926 33.2135Z" fill="#FF7265"/>
<path d="M55.394 51.7994H48.7586C48.0095 51.7994 47.4023 52.4067 47.4023 53.1558V54.512H55.394C56.1431 54.512 56.7502 53.9047 56.7502 53.1558C56.7502 52.4067 56.1431 51.7994 55.394 51.7994Z" fill="#FF7265"/>
<path d="M55.3926 51.7994H51.877C52.6268 51.7994 53.2348 52.4067 53.2348 53.1556C53.2348 53.9047 53.2902 54.512 53.2902 54.512H56.8058C56.8058 54.512 56.7504 53.9047 56.7504 53.1556C56.7504 52.4067 56.1424 51.7994 55.3926 51.7994Z" fill="#8BD3F0"/>
<path d="M12.6475 54.5119H9.13184C9.90844 54.5119 10.5381 55.1415 10.5381 55.9181V59.1211H14.0537V55.9181C14.0537 55.1415 13.424 54.5119 12.6475 54.5119Z" fill="#FF7265"/>
<path d="M11.2344 33.2135H7.71875C8.46863 33.2135 9.07648 33.8208 9.07648 34.5698C9.07648 35.3188 8.46863 35.926 7.71875 35.926H11.2344C11.9842 35.926 12.5921 35.3188 12.5921 34.5698C12.5921 33.8208 11.9842 33.2135 11.2344 33.2135Z" fill="#FF7265"/>
<path d="M11.2344 51.7994H7.71875C8.46863 51.7994 9.07648 52.4067 9.07648 53.1556V54.512H12.5977C12.5977 54.512 12.5921 53.9047 12.5921 53.1556C12.5921 52.4067 11.9842 51.7994 11.2344 51.7994Z" fill="#8BD3F0"/>
<path d="M2.59082 6.32601V11.1303L4.89191 14.1174H55.1055L57.4066 11.1303V6.32601H2.59082Z" fill="#FF7265"/>
<path d="M53.8909 6.32589V11.1303L51.5898 14.1174H55.1055L57.4065 11.1303V6.32589H53.8909Z" fill="#8BD3F0"/>
<path d="M14.2884 21.5276C15.4195 21.5276 15.4214 19.7698 14.2884 19.7698C13.1574 19.7698 13.1555 21.5276 14.2884 21.5276Z" fill="black"/>
<path d="M14.2884 18.436C15.4195 18.436 15.4214 16.6782 14.2884 16.6782C13.1574 16.6782 13.1555 18.436 14.2884 18.436Z" fill="black"/>
<path d="M17.2308 18.436C18.3619 18.436 18.3637 16.6782 17.2308 16.6782C16.0998 16.6782 16.0979 18.436 17.2308 18.436Z" fill="black"/>
<path d="M45.7084 21.5276C46.8394 21.5276 46.8414 19.7698 45.7084 19.7698C44.5773 19.7698 44.5754 21.5276 45.7084 21.5276Z" fill="black"/>
<path d="M45.7084 18.436C46.8394 18.436 46.8414 16.6782 45.7084 16.6782C44.5773 16.6782 44.5754 18.436 45.7084 18.436Z" fill="black"/>
<path d="M42.766 18.436C43.897 18.436 43.899 16.6782 42.766 16.6782C41.6349 16.6782 41.633 18.436 42.766 18.436Z" fill="black"/>
</g>
</g>
<defs>
<clipPath id="clip0_1134_1237">
<rect width="60" height="60" fill="white"/>
</clipPath>
</defs>
</svg>

<svg xmlns="http://www.w3.org/2000/svg" width="60" height="60" fill="none" xmlns:v="https://vecta.io/nano"><style><![CDATA[.B{fill:#ff7265}.C{fill:#bee7f4}.D{fill:#a6e7f0}.E{fill:#84716b}.F{fill:#a98f87}.G{fill:#8bd3f0}]]></style><g clip-path="url(#B)"><mask id="A" maskUnits="userSpaceOnUse" x="0" y="0" width="60" height="60"><path d="M0 0h60v60H0V0z" fill="#fff"/></mask><g mask="url(#A)"><path d="M29.993 18.697s.468 16.225-19.289 22.592l-2.871.195V14.117H30l-.007 4.579z" class="E"/><path d="M30.007 18.697s-.155 16.42 19.602 22.787h2.559V14.117H30l.007 4.579z" class="E"/><path d="M52.135 41.484s-18.184-3.281-18.184-24.492h-7.902c0 21.211-18.184 24.492-18.184 24.492C21.037 41.078 27.169 32.989 30 26.216c2.831 6.772 8.963 14.862 22.135 15.267z" class="F"/><path d="M33.178 6.638c4.622 0 .715-6.758-1.595-2.76 2.311-3.998-5.502-3.998-3.191 0-2.311-3.998-6.217 2.76-1.596 2.76h6.382z" class="E"/><path d="M43.869 6.638c4.622 0 .715-6.758-1.596-2.76 2.311-3.998-5.502-3.998-3.191 0-2.311-3.998-6.217 2.76-1.595 2.76h6.382z" class="F"/><use href="#C" class="E"/><path d="M22.485 6.638c4.622 0 .715-6.758-1.596-2.76 2.311-3.998-5.502-3.998-3.191 0-2.311-3.998-6.217 2.76-1.596 2.76h6.383z" class="F"/><path d="M11.819 6.638c4.622 0 .715-6.758-1.596-2.76 2.311-3.998-5.502-3.998-3.191 0C4.721-.12.815 6.638 5.437 6.638h6.383z" class="E"/><path d="M9.204 33.213h3.847a2.06 2.06 0 0 0 2.06-2.058c0-2.708 2.198-4.903 4.909-4.903 0-2.729 2.215-4.942 4.947-4.942 2.082-.071 3.662-1.142 5.034-2.614 1.466 1.465 2.907 2.512 5.034 2.614 2.732 0 4.947 2.212 4.947 4.942 2.711 0 4.908 2.195 4.908 4.903a2.06 2.06 0 0 0 2.06 2.058h3.847V14.117H9.204v19.096z" fill="#fff"/><path d="M14.06 59.121H1.788v-3.203c0-.777.63-1.406 1.406-1.406h9.459c.777 0 1.406.63 1.406 1.406v3.203zm44.152 0H45.94v-3.203c0-.777.63-1.406 1.406-1.406h9.459c.777 0 1.406.63 1.406 1.406v3.203z" class="B"/><path d="M56.806 54.512H53.29c.777 0 1.406.63 1.406 1.406v3.203h3.516v-3.203c0-.777-.63-1.406-1.406-1.406z" class="B"/><path d="M10.956 33.213H4.892V14.117h6.065v19.096z" class="C"/><path d="M7.44 33.213h3.516V14.117H7.44v19.096z" class="D"/><path d="M9.887 54.512H5.96V40.128h3.927v14.384z" class="C"/><path d="M7.538 54.512h2.344V40.128H7.538v14.384z" class="D"/><path d="M9.984 40.128H5.862L4.712 38.09v-4.876h6.423v4.877l-1.151 2.038z" class="C"/><path d="M7.614 33.214v6.914h2.365l1.151-2.038v-4.876H7.614z" class="D"/><path d="M9.923 40.128H5.925c-.75 0-1.358.607-1.358 1.356s.608 1.356 1.358 1.356h3.998c.75 0 1.358-.607 1.358-1.356s-.608-1.356-1.358-1.356zm1.317-6.914H4.608c-.75 0-1.358.607-1.358 1.356s.608 1.356 1.358 1.356h6.632c.75 0 1.358-.607 1.358-1.356s-.608-1.356-1.358-1.356zm0 18.585H4.608c-.75 0-1.358.607-1.358 1.356v1.356h9.348v-1.356c0-.749-.608-1.356-1.358-1.356z" class="B"/><path d="M55.109 33.213h-6.065V14.117h6.065v19.096z" class="C"/><path d="M51.594 33.213h3.516V14.117h-3.516v19.096z" class="D"/><path d="M54.04 54.512h-3.927V40.128h3.927v14.384z" class="C"/><path d="M51.696 54.512h2.344V40.128h-2.344v14.384z" class="D"/><path d="M54.138 40.128h-4.122l-1.151-2.038v-4.876h6.423v4.877l-1.15 2.038z" class="C"/><path d="M51.773 33.214v6.914h2.365l1.151-2.038v-4.876h-3.516z" class="D"/><path d="M54.075 40.128h-3.998c-.75 0-1.358.607-1.358 1.356s.608 1.356 1.358 1.356h3.998c.75 0 1.358-.607 1.358-1.356s-.608-1.356-1.358-1.356z" class="B"/><path d="M54.075 40.128h-2.344c.75 0 1.358.607 1.358 1.356s-.608 1.356-1.358 1.356h2.344c.75 0 1.358-.607 1.358-1.356s-.608-1.356-1.358-1.356zm-44.152 0H7.579c.75 0 1.358.607 1.358 1.356s-.608 1.356-1.358 1.356h2.344c.75 0 1.358-.607 1.358-1.356s-.608-1.356-1.358-1.356zm45.47-6.914H48.76c-.75 0-1.358.607-1.358 1.356s.608 1.356 1.358 1.356h6.632c.75 0 1.358-.607 1.358-1.356s-.608-1.356-1.358-1.356z" class="B"/><path d="M55.393 33.214h-3.516c.75 0 1.358.607 1.358 1.356s-.608 1.356-1.358 1.356h3.516c.75 0 1.358-.607 1.358-1.356s-.608-1.356-1.358-1.356zm.001 18.585h-6.635c-.749 0-1.356.607-1.356 1.356v1.356h7.992c.749 0 1.356-.607 1.356-1.356s-.607-1.356-1.356-1.356z" class="B"/><path d="M55.393 51.799h-3.516c.75 0 1.358.607 1.358 1.356l.055 1.356h3.516l-.055-1.356c0-.749-.608-1.356-1.358-1.356z" class="G"/><path d="M12.648 54.512H9.132c.777 0 1.406.63 1.406 1.406v3.203h3.516v-3.203c0-.777-.63-1.406-1.406-1.406zm-1.414-21.298H7.719c.75 0 1.358.607 1.358 1.356s-.608 1.356-1.358 1.356h3.516c.75 0 1.358-.607 1.358-1.356s-.608-1.356-1.358-1.356z" class="B"/><path d="M11.234 51.799H7.719c.75 0 1.358.607 1.358 1.356v1.356h3.521l-.006-1.356c0-.749-.608-1.356-1.358-1.356z" class="G"/><path d="M2.591 6.326v4.804l2.301 2.987h50.214l2.301-2.987V6.326H2.591z" class="B"/><path d="M53.891 6.326v4.804l-2.301 2.987h3.516l2.301-2.987V6.326h-3.516z" class="G"/><use href="#D" fill="#000"/><path d="M14.288 18.436c1.131 0 1.133-1.758 0-1.758s-1.133 1.758 0 1.758zm2.943 0c1.131 0 1.133-1.758 0-1.758s-1.133 1.758 0 1.758zm28.477 3.092c1.131 0 1.133-1.758 0-1.758s-1.133 1.758 0 1.758zm0-3.092c1.131 0 1.133-1.758 0-1.758s-1.133 1.758 0 1.758zm-2.942 0c1.131 0 1.133-1.758 0-1.758s-1.133 1.758 0 1.758z" fill="#000"/></g></g><defs><clipPath id="B"><path fill="#fff" d="M0 0h60v60H0z"/></clipPath><path id="C" d="M54.56 6.638c4.622 0 .715-6.758-1.596-2.76 2.311-3.998-5.502-3.998-3.191 0-2.311-3.998-6.217 2.76-1.596 2.76h6.383z"/><path id="D" d="M14.288 21.528c1.131 0 1.133-1.758 0-1.758s-1.133 1.758 0 1.758z"/></defs></svg>
